X: 10979
T: Drunken Friday
R: reel
M: 4/4
K: Gdorian
d/d/d (fe) dAA=B|cdcA G/F/E/D/ CE|d/d/d fe dAA(=B|c/=B/A) cE D/D/D D2:|
(F/G/A) (FD) FAdF|E/F/G EC EGcE|F/G/A FD FAdF|GEcE D/D/D D2:|

